;FLAVOR:Marlin
;TIME:1082
;Filament used: 0.148197m
;Layer height: 0.1
;MINX:-9.748
;MINY:-9.803
;MINZ:0.3
;MAXX:9.75
;MAXY:9.801
;MAXZ:10
;Generated with Cura_SteamEngine 5.3.0
M104 S200
M105
M109 S200
M82 ;absolute extrusion mode
G28 ;Home
G1 Z15.0 F6000 ;Move the platform down 15mm
;Prime the extruder
G92 E0
G1 F200 E3
G92 E0
G92 E0
G92 E0
G1 F1500 E-6.5
;LAYER_COUNT:98
;LAYER:0
M107
;MESH:yinyang.STL
G0 F3600 X-0.053 Y-3.948 Z0.3
;TYPE:WALL-INNER
G1 F1500 E0
G1 F1243.5 X0.161 Y-4.003 E0.00602
G1 X0.259 Y-4.09 E0.00958
G1 F1241.4 X0.298 Y-4.21 E0.01303
G1 F1243.5 X0.244 Y-4.432 E0.01925
G1 X0.145 Y-4.514 E0.02275
G1 X-0.052 Y-4.547 E0.02819
G1 X-.245 Y-4.432 E0.0343
G1 X-.298 Y-4.21 E0.04052
G1 X-.26 Y-4.089 E0.04397
G1 X-0.053 Y-3.948 E0.05079
G0 F3600 X0.2 Y-3.48
;TYPE:WALL-OUTER
G1 F1800 X0.444 Y-3.59 E0.05583
G1 X0.648 Y-3.783 E0.06111
G1 X0.791 Y-4.147 E0.06846
G1 X0.778 Y-4.416 E0.07353
G1 X0.604 Y-4.772 E0.08098
G1 X0.387 Y-4.947 E0.08623
G1 X0.136 Y-5.036 E0.09124
G1 X-.136 Y-5.036 E0.09635
G1 X-.387 Y-4.947 E0.10136
G1 X-.604 Y-4.772 E0.10661
G1 X-.778 Y-4.416 E0.11406
G1 X-.791 Y-4.147 E0.11913
G1 X-.648 Y-3.783 E0.12648
G1 X-.446 Y-3.59 E0.13174
G1 X-0.081 Y-3.455 E0.13906
G1 X0.2 Y-3.48 E0.14437
G0 F3600 X0.382 Y-3.562
G1 F1500 E-6.35563
G0 F3600 X0.05 Y-4.176
G0 X-0.072 Y3.684
G0 X-0.053 Y4.552
;TYPE:WALL-INNER
G1 F1500 E0.14437
G1 F1243.5 X0.161 Y4.497 E0.15038
G1 X0.259 Y4.41 E0.15395
G1 F1241.4 X0.298 Y4.29 E0.15739
G1 F1243.5 X0.244 Y4.068 E0.16361
G1 X0.145 Y3.986 E0.16711
G1 X-0.052 Y3.953 E0.17255
G1 X-.245 Y4.068 E0.17867
G1 X-.298 Y4.29 E0.18488
G1 X-.26 Y4.411 E0.18834
G1 X-0.053 Y4.552 E0.19516
G0 F3600 X0.2 Y5.02
;TYPE:WALL-OUTER
G1 F1800 X0.444 Y4.91 E0.20019
G1 X0.648 Y4.717 E0.20547
G1 X0.791 Y4.353 E0.21283
G1 X0.778 Y4.084 E0.2179
G1 X0.604 Y3.728 E0.22535
G1 X0.387 Y3.553 E0.23059
G1 X0.136 Y3.464 E0.2356
G1 X-.136 Y3.464 E0.24072
G1 X-.387 Y3.553 E0.24573
G1 X-.604 Y3.728 E0.25097
G1 X-.778 Y4.084 E0.25843
G1 X-.791 Y4.353 E0.26349
G1 X-.648 Y4.717 E0.27085
G1 X-.446 Y4.91 E0.2761
G1 X-0.081 Y5.045 E0.28342
G1 X0.2 Y5.02 E0.28873
G0 F3600 X0.382 Y4.938
G1 F1500 E-6.21127
G0 F3600 X0.05 Y4.324
G0 X0.234 Y5.885
G0 X-0.063 Y7.328
G0 X0.539 Y9.188
;TYPE:WALL-INNER
G1 F1500 E0.28873
G1 F1218.3 X0.438 Y8.784 E0.3003
G1 X0.384 Y8.728 E0.30247
G1 X0.155 Y8.707 E0.30886
G1 F1454.5 X-.229 Y8.585 E0.31824
G1 F1800 X-.89 Y8.5 E0.33077
G1 X-.812 Y8.584 E0.33293
G1 X-.782 Y8.908 E0.33905
G1 X-.813 Y9.034 E0.34149
G1 X-1.162 Y9.318 E0.34995
G1 X-.319 Y9.403 E0.36589
G1 F1454.5 X0.146 Y9.298 E0.37699
G1 F1218.3 X0.678 Y9.27 E0.39179
G1 X0.539 Y9.188 E0.39628
G0 F3600 X-.689 Y8.384
G0 X-1.995 Y7.936
G0 X-3.083 Y7.089
G0 X-3.838 Y5.933
G0 X-4.175 Y4.606
G0 X-4.062 Y3.221
G0 X-3.508 Y1.959
G0 X-2.573 Y0.943
G0 X-1.37 Y0.29
G0 X1.37 Y-.29
G0 X2.573 Y-.943
G0 X3.508 Y-1.959
G0 X4.062 Y-3.221
G0 X4.175 Y-4.606
G0 X3.838 Y-5.933
G0 X3.083 Y-7.089
G0 X2.105 Y-7.863
G0 X0.774 Y-8.419
G0 X0.812 Y-8.583
G1 F1800 X0.781 Y-8.904 E0.40235
G1 X0.814 Y-9.033 E0.40485
G1 X1.032 Y-9.34 E0.41193
G1 X0.00 Y-9.398 E0.43138
G1 X-.835 Y-9.354 E0.44711
G1 X-.477 Y-8.981 E0.45683
G1 X-.433 Y-8.712 E0.46196
G1 X-.219 Y-8.617 E0.46636
G1 X0.667 Y-8.549 E0.48308
G1 X0.896 Y-8.499 E0.48749
G1 X0.812 Y-8.583 E0.48972
G0 F3600 X1.39 Y-9.13
;TYPE:WALL-OUTER
G1 F1434.3 X2.03 Y-9.024 E0.50504
G1 F1451.6 X3.054 Y-8.73 E0.52989
G1 F1457.5 X3.992 Y-8.343 E0.55346
G1 F1460.4 X4.846 Y-7.881 E0.57597
G1 X5.691 Y-7.293 E0.59984
G1 F1463.4 X6.458 Y-6.626 E0.62335
G1 X7.156 Y-5.866 E0.64723
G1 F1460.4 X7.761 Y-5.037 E0.67102
G1 X8.258 Y-4.172 E0.69415
G1 F1440 X8.51 Y-3.596 E0.70893
G1 X8.741 Y-3.033 E0.72324
G1 F1460.4 X9.021 Y-2.064 E0.74663
G1 F1463.4 X9.194 Y-1.039 E0.77068
G1 X9.251 Y-0.015 E0.79441
G1 X9.197 Y1.006 E0.81806
G1 X9.032 Y2.004 E0.84147
G1 F1460.4 X8.769 Y2.939 E0.86398
G1 F1454.5 X8.37 Y3.94 E0.88907
G1 F1451.6 X7.891 Y4.824 E0.91252
G1 F1448.7 X7.307 Y5.673 E0.9366
G1 F1445.8 X6.628 Y6.451 E0.96079
G1 F1442.9 X5.896 Y7.128 E0.98419
G1 F1448.7 X5.038 Y7.757 E1.00905
G1 F1451.6 X4.148 Y8.265 E1.03295
G1 F1448.7 X3.2 Y8.677 E1.05711
G1 F1451.6 X2.218 Y8.979 E1.08108
G1 F1457.5 X1.21 Y9.169 E1.10491
G1 F1614.3 X0.997 Y9 E1.11061
G1 F1800 X0.951 Y8.737 E1.11563
G1 X0.863 Y8.51 E1.12021
G1 X0.665 Y8.307 E1.12554
G1 X0.469 Y8.228 E1.12952
G1 X-0.016 Y8.2 E1.13866
G1 F1690.1 X-.995 Y8.119 E1.15834
G1 F1522.2 X-1.311 Y8.029 E1.16565
G1 F1454.5 X-1.91 Y7.764 E1.18089
G1 F1457.5 X-2.457 Y7.404 E1.19611
G1 X-2.94 Y6.96 E1.21135
G1 X-3.344 Y6.441 E1.22663
G1 F1454.5 X-3.657 Y5.863 E1.24193
G1 F1451.6 X-3.873 Y5.247 E1.25715
G1 F1445.8 X-3.986 Y4.571 E1.2732
G1 F1440 X-3.987 Y3.933 E1.2882
G1 F1445.8 X-3.873 Y3.253 E1.30435
G1 F1451.6 X-3.669 Y2.664 E1.31889
G1 F1454.5 X-3.344 Y2.059 E1.33488
G1 F1457.5 X-2.94 Y1.54 E1.35016
G1 X-2.457 Y1.096 E1.3654
G1 X-1.91 Y0.736 E1.38061
G1 F1454.5 X-1.284 Y0.459 E1.39655
G1 F1448.7 X-.639 Y0.302 E1.41206
G1 F1442.9 X0.672 Y0.198 E1.44292
G1 F1437.1 X1.329 Y0.046 E1.45881
G1 F1434.3 X1.954 Y-.199 E1.47466
G1 F1431.4 X2.532 Y-.533 E1.49045
G1 F1428.6 X3.054 Y-.95 E1.50628
G1 X3.52 Y-1.452 E1.52252
G1 X3.891 Y-1.997 E1.53814
G1 F1431.4 X4.189 Y-2.615 E1.55437
G1 F1434.3 X4.387 Y-3.255 E1.57019
G1 F1440 X4.487 Y-3.907 E1.5857
G1 X4.487 Y-4.59 E1.60176
G1 F1437.1 X4.387 Y-5.245 E1.61737
G1 F1431.4 X4.189 Y-5.885 E1.63321
G1 F1428.6 X3.891 Y-6.503 E1.64948
G1 X3.52 Y-7.048 E1.6651
G1 X3.054 Y-7.55 E1.68134
G1 X2.532 Y-7.967 E1.69717
G1 X1.954 Y-8.301 E1.71299
G1 X1.281 Y-8.563 E1.73011
G1 F1592.9 X1.176 Y-8.759 E1.73484
G1 F1800 X1.2 Y-8.929 E1.73807
G1 F1589.4 X1.39 Y-9.13 E1.74396
G0 F3600 X1.587 Y-9.098
G0 X1.629 Y-9.344
G0 X0.479 Y-9.404
G0 X-1.092 Y-9.44
G0 X-1.049 Y-9.193
G1 F1596.5 X-.876 Y-8.951 E1.75027
G1 F1800 X-.797 Y-8.535 E1.75823
G1 X-.704 Y-8.4 E1.76132
G1 X-.56 Y-8.301 E1.7646
G1 X-.293 Y-8.221 E1.76985
G1 F1690.1 X0.998 Y-8.121 E1.79579
G1 F1525.4 X1.311 Y-8.029 E1.80303
G1 F1463.4 X1.91 Y-7.764 E1.81818
G1 F1466.4 X2.456 Y-7.405 E1.83327
G1 X2.94 Y-6.96 E1.84845
G1 X3.344 Y-6.441 E1.86364
G1 F1463.4 X3.657 Y-5.863 E1.87885
G1 F1460.4 X3.873 Y-5.247 E1.89398
G1 F1448.7 X3.986 Y-4.569 E1.91005
G1 F1440 X3.987 Y-3.933 E1.925
G1 F1448.7 X3.873 Y-3.253 E1.94111
G1 F1454.5 X3.669 Y-2.664 E1.95562
G1 F1457.5 X3.344 Y-2.059 E1.97158
G1 F1466.4 X2.94 Y-1.54 E1.98677
G1 X2.457 Y-1.096 E2.00191
G1 F1463.4 X1.91 Y-.736 E2.01706
G1 F1457.5 X1.284 Y-.459 E2.03297
G1 F1448.7 X0.639 Y-.302 E2.04848
G1 F1440 X-.672 Y-.198 E2.07941
G1 F1437.1 X-1.329 Y-0.046 E2.09529
G1 F1431.4 X-1.954 Y0.199 E2.11117
G1 F1428.6 X-2.532 Y0.533 E2.12699
G1 F1425.7 X-3.054 Y0.95 E2.14286
G1 X-3.52 Y1.452 E2.15913
G1 F1428.6 X-3.891 Y1.997 E2.17475
G1 F1431.4 X-4.189 Y2.615 E2.19098
G1 F1434.3 X-4.387 Y3.255 E2.2068
G1 F1437.1 X-4.487 Y3.907 E2.22234
G1 F1440 X-4.486 Y4.593 E2.23847
G1 F1437.1 X-4.387 Y5.245 E2.25401
G1 F1431.4 X-4.189 Y5.885 E2.26985
G1 F1428.6 X-3.891 Y6.503 E2.28611
G1 F1425.7 X-3.52 Y7.048 E2.30177
G1 X-3.055 Y7.548 E2.31799
G1 F1428.6 X-2.532 Y7.967 E2.33387
G1 F1431.4 X-1.954 Y8.301 E2.34966
G1 F1428.6 X-1.269 Y8.566 E2.36707
G1 F1592.9 X-1.176 Y8.758 E2.3716
G1 F1800 X-1.2 Y8.93 E2.37487
G1 F1596.5 X-1.382 Y9.138 E2.38073
G1 F1445.8 X-2.139 Y9.001 E2.39875
G1 F1457.5 X-3.121 Y8.709 E2.42255
G1 X-4.054 Y8.317 E2.44606
G1 F1454.5 X-4.96 Y7.809 E2.47024
G1 X-5.746 Y7.246 E2.49274
G1 F1451.6 X-6.516 Y6.562 E2.51677
G1 F1448.7 X-7.23 Y5.768 E2.54172
G1 F1442.9 X-7.836 Y4.913 E2.56632
G1 X-8.324 Y4.037 E2.58985
G1 F1445.8 X-8.718 Y3.09 E2.61387
G1 X-9.012 Y2.08 E2.6385
G1 F1451.6 X-9.186 Y1.078 E2.66222
G1 X-9.248 Y0.028 E2.68676
G1 F1454.5 X-9.195 Y-.998 E2.71067
G1 F1451.6 X-9.026 Y-2.019 E2.73481
G1 F1434.3 X-8.889 Y-2.525 E2.74719
G1 F1445.8 X-8.736 Y-3.031 E2.75957
G1 F1466.4 X-8.399 Y-3.882 E2.7807
G1 F1463.4 X-7.919 Y-4.785 E2.80436
G1 F1440 X-7.564 Y-5.306 E2.81919
G1 X-7.198 Y-5.814 E2.83391
G1 F1457.5 X-6.51 Y-6.576 E2.85776
G1 X-5.742 Y-7.254 E2.88156
G1 X-4.912 Y-7.84 E2.90516
G1 X-4.079 Y-8.299 E2.92726
G1 F1454.5 X-3.07 Y-8.727 E2.95277
G1 F1451.6 X-2.137 Y-8.998 E2.97543
G1 F1442.9 X-1.049 Y-9.193 E3.00137
G0 F3600 X-.933 Y-9.031
G0 X-.584 Y-9.056
G0 X0.688 Y-8.384
G0 X1.995 Y-7.936
G0 X3.083 Y-7.089
G0 X3.838 Y-5.933
G0 X4.175 Y-4.606
G0 X4.062 Y-3.221
G0 X3.508 Y-1.959
G0 X2.573 Y-.943
G0 X1.37 Y-.29
G0 X-1.37 Y0.29
G0 X-2.573 Y0.943
G0 X-3.508 Y1.959
G0 X-4.062 Y3.221
G0 X-4.175 Y4.606
G0 X-3.838 Y5.933
G0 X-3.083 Y7.089
G0 X-1.274 Y8.367
G0 X0.455 Y8.604
G0 X0.4 Y9.45
G0 X-1.361 Y9.395
G0 X-1.387 Y9.639
G1 F1487.6 X-.554 Y9.785 E3.02062
G1 F1686.2 X0.012 Y9.8 E3.03199
G1 F1804.5 X0.528 Y9.784 E3.04167
G1 F1614.3 X1.261 Y9.659 E3.05727
G1 F1442.9 X1.568 Y9.62 E3.06453
G1 F1428.6 X2.495 Y9.426 E3.08698
G1 X3.5 Y9.101 E3.11201
G1 F1431.4 X4.493 Y8.651 E3.1378
G1 F1437.1 X5.404 Y8.113 E3.16273
G1 F1442.9 X6.236 Y7.493 E3.18708
G1 X6.985 Y6.801 E3.21101
G1 X7.672 Y6.016 E3.23548
G1 F1440 X8.266 Y5.167 E3.25985
G1 F1434.3 X8.769 Y4.258 E3.28437
G1 F1431.4 X9.174 Y3.294 E3.30911
G1 X9.492 Y2.235 E3.33526
G1 F1428.6 X9.675 Y1.215 E3.35982
G1 F1425.7 X9.75 Y0.137 E3.38549
G1 F1422.9 X9.711 Y-.892 E3.40999
G1 X9.56 Y-1.925 E3.43483
G1 F1417.3 X9.334 Y-2.802 E3.45647
G1 F1414.5 X9.339 Y-2.808 E3.45665
G1 F1437.1 X9.17 Y-3.292 E3.46873
G1 X8.973 Y-3.804 E3.48166
G1 F1420.1 X8.593 Y-4.615 E3.50301
G1 F1422.9 X8.046 Y-5.512 E3.52801
G1 F1425.7 X7.395 Y-6.357 E3.55334
G1 X6.69 Y-7.094 E3.57756
G1 F1428.6 X5.876 Y-7.781 E3.60281
G1 X5.009 Y-8.366 E3.6276
G1 F1431.4 X4.079 Y-8.856 E3.65246
G1 F1434.3 X3.057 Y-9.257 E3.67838
G1 F1437.1 X2.06 Y-9.53 E3.70273
G1 F1431.4 X1.425 Y-9.631 E3.71794
G1 F1589.4 X1.03 Y-9.745 E3.7267
G1 F1698.1 X-0.057 Y-9.802 E3.7484
G1 F1525.4 X-1.201 Y-9.67 E3.77397
G1 F1440 X-2.059 Y-9.529 E3.79441
G1 F1428.6 X-3.117 Y-9.24 E3.82041
G1 F1425.7 X-4.034 Y-8.872 E3.84387
G1 X-5.019 Y-8.361 E3.87022
G1 X-5.9 Y-7.763 E3.89551
G1 X-6.704 Y-7.082 E3.92053
G1 F1422.9 X-7.333 Y-6.42 E3.94226
G1 F1442.9 X-7.662 Y-6.012 E3.95456
G1 F1440 X-7.979 Y-5.598 E3.96682
G1 F1420.1 X-8.478 Y-4.819 E3.98888
G1 F1422.9 X-8.951 Y-3.872 E4.01407
G1 F1420.1 X-9.372 Y-2.698 E4.0438
G1 F1417.3 X-9.566 Y-1.899 E4.06345
G1 F1425.7 X-9.717 Y-.773 E4.09043
G1 F1431.4 X-9.748 Y0.214 E4.11378
G1 X-9.663 Y1.284 E4.13917
G1 F1434.3 X-9.472 Y2.308 E4.16376
G1 F1437.1 X-9.166 Y3.319 E4.18865
G1 F1442.9 X-8.771 Y4.258 E4.21256
G1 X-8.266 Y5.167 E4.23696
G1 F1437.1 X-7.671 Y6.016 E4.26138
G1 F1434.3 X-6.984 Y6.8 E4.28599
G1 F1431.4 X-6.221 Y7.504 E4.31055
G1 X-5.331 Y8.163 E4.33674
G1 X-4.419 Y8.693 E4.3617
G1 F1428.6 X-3.462 Y9.116 E4.38649
G1 F1425.7 X-2.455 Y9.437 E4.41159
G1 X-1.554 Y9.621 E4.43343
G1 F1417.3 X-1.387 Y9.639 E4.43745
G0 F3600 X-1.19 Y9.673
G0 X-1.163 Y9.416
G0 X0.4 Y9.45
G0 X0.455 Y8.604
G0 X-1.36 Y8.214
G0 X-2.573 Y7.557
G0 X-3.508 Y6.541
G0 X-4.062 Y5.279
G0 X-4.176 Y3.904
G0 X-3.838 Y2.567
G0 X-3.083 Y1.411
G0 X-1.995 Y0.564
G0 X1.37 Y-.29
G0 X2.573 Y-.943
G0 X3.508 Y-1.959
G0 X4.062 Y-3.221
G0 X4.175 Y-4.606
G0 X3.838 Y-5.933
G0 X3.083 Y-7.089
G0 X1.995 Y-7.936
G0 X0.348 Y-8.474
G0 X0.385 Y-8.974
;TYPE:SKIN
G1 F1659 X-0.085 Y-9.001 E4.44705
G1 F1500 E-2.05295
;MESH:NOMESH
G0 F600 X-0.085 Y-9.001 Z0.4
G0 F3600 X-.498 Y-9.028
G0 X0.309 Y-8.392
G0 X0.227 Y-7.312
G0 X0.097 Y-5.901
G0 X0.097 Y-4.817
G0 X-0.053 Y-3.948
;TIME_ELAPSED:13.609478
;LAYER:1
M106 S255
;TYPE:WALL-INNER
;MESH:yinyang.STL
G1 F1500 E4.44705
G1 F1865.3 X0.161 Y-4.003 E4.44906
G1 X0.259 Y-4.09 E4.45025
G1 F1862.1 X0.298 Y-4.21 E4.4514
G1 F1865.3 X0.244 Y-4.432 E4.45347
G1 X0.145 Y-4.514 E4.45464
G1 X-0.052 Y-4.547 E4.45645
G1 X-.245 Y-4.432 E4.45849
G1 X-.298 Y-4.21 E4.46056
G1 X-.26 Y-4.089 E4.46171
G1 X-0.053 Y-3.948 E4.46398
G0 F5400 X0.2 Y-3.48
;TYPE:WALL-OUTER
G1 F1800 X0.444 Y-3.59 E4.46566
G1 X0.648 Y-3.783 E4.46742
G1 X0.791 Y-4.147 E4.46988
G1 X0.778 Y-4.416 E4.47156
G1 X0.604 Y-4.772 E4.47405
G1 X0.387 Y-4.947 E4.4758
G1 X0.136 Y-5.036 E4.47747
G1 X-.136 Y-5.036 E4.47917
G1 X-.387 Y-4.947 E4.48084
G1 X-.604 Y-4.772 E4.48259
G1 X-.778 Y-4.416 E4.48507
G1 X-.791 Y-4.147 E4.48676
G1 X-.648 Y-3.783 E4.48922
G1 X-.446 Y-3.59 E4.49097
G1 X-0.081 Y-3.455 E4.49341
G1 X0.2 Y-3.48 E4.49518
G0 F5400 X0.382 Y-3.562
G1 F1500 E-2.00482
G0 F5400 X0.05 Y-4.176
G0 X-0.072 Y3.684
G0 X-0.053 Y4.552
;TYPE:WALL-INNER
G1 F1500 E4.49518
G1 F1865.3 X0.161 Y4.497 E4.49718
G1 X0.259 Y4.41 E4.49837
G1 F1862.1 X0.298 Y4.29 E4.49952
G1 F1865.3 X0.244 Y4.068 E4.50159
G1 X0.145 Y3.986 E4.50276
G1 X-0.052 Y3.953 E4.50457
G1 X-.245 Y4.068 E4.50661
G1 X-.298 Y4.29 E4.50868
G1 X-.26 Y4.411 E4.50983
G1 X-0.053 Y4.552 E4.51211
G0 F5400 X0.2 Y5.02
;TYPE:WALL-OUTER
G1 F1800 X0.444 Y4.91 E4.51378
G1 X0.648 Y4.717 E4.51555
G1 X0.791 Y4.353 E4.518
G1 X0.778 Y4.084 E4.51969
G1 X0.604 Y3.728 E4.52217
G1 X0.387 Y3.553 E4.52392
G1 X0.136 Y3.464 E4.52559
G1 X-.136 Y3.464 E4.52729
G1 X-.387 Y3.553 E4.52896
G1 X-.604 Y3.728 E4.53071
G1 X-.778 Y4.084 E4.5332
G1 X-.791 Y4.353 E4.53488
G1 X-.648 Y4.717 E4.53734
G1 X-.446 Y4.91 E4.53909
G1 X-0.081 Y5.045 E4.54153
G1 X0.2 Y5.02 E4.5433
G0 F5400 X0.382 Y4.938
G1 F1500 E-1.9567
G0 F5400 X0.05 Y4.324
G0 X0.234 Y5.885
G0 X-0.063 Y7.328
G0 X0.542 Y9.194
;TYPE:WALL-INNER
G1 F1500 E4.5433
G1 F1827.4 X0.438 Y8.784 E4.54722
G1 X0.36 Y8.718 E4.54816
G1 X0.149 Y8.707 E4.55012
G1 F2181.8 X-.235 Y8.585 E4.55325
G1 F2700 X-.89 Y8.5 E4.55739
G1 X-.812 Y8.584 E4.55811
G1 X-.782 Y8.908 E4.56015
G1 X-.813 Y9.034 E4.56096
G1 X-1.162 Y9.318 E4.56378
G1 X-.322 Y9.402 E4.56908
G1 F2181.8 X0.14 Y9.298 E4.57275
G1 F1827.4 X0.674 Y9.271 E4.5777
G1 X0.542 Y9.194 E4.57912
G0 F5400 X-.689 Y8.384
G0 X-1.995 Y7.936
G0 X-3.083 Y7.089
G0 X-3.838 Y5.933
G0 X-4.176 Y4.596
G0 X-4.062 Y3.221
G0 X-3.508 Y1.959
G0 X-2.573 Y0.943
G0 X-1.36 Y0.286
G0 X1.36 Y-.286
G0 X2.573 Y-.943
G0 X3.508 Y-1.959
G0 X4.062 Y-3.221
G0 X4.176 Y-4.596
G0 X3.838 Y-5.933
G0 X3.083 Y-7.089
G0 X2.105 Y-7.863
G0 X0.774 Y-8.42
G0 X0.812 Y-8.583
G1 F2700 X0.781 Y-8.904 E4.58114
G1 X0.814 Y-9.033 E4.58198
G1 X1.005 Y-9.34 E4.58424
G1 X-0.02 Y-9.398 E4.59068
G1 X-.835 Y-9.354 E4.5958
G1 X-.477 Y-8.981 E4.59904
G1 X-.433 Y-8.712 E4.60075
G1 X-.219 Y-8.617 E4.60222
G1 X0.667 Y-8.549 E4.60779
G1 X0.896 Y-8.499 E4.60926
G1 X0.812 Y-8.583 E4.61
G0 F5400 X1.39 Y-9.13
;TYPE:WALL-OUTER
G1 F1434.3 X2.03 Y-9.024 E4.61511
G1 F1451.6 X3.054 Y-8.73 E4.62339
G1 F1457.5 X3.992 Y-8.343 E4.63125
G1 F1460.4 X4.846 Y-7.881 E4.63875
G1 X5.691 Y-7.293 E4.64671
G1 F1463.4 X6.458 Y-6.626 E4.65455
G1 X7.156 Y-5.866 E4.66251
G1 F1460.4 X7.761 Y-5.037 E4.67044
G1 X8.258 Y-4.172 E4.67815
G1 F1440 X8.51 Y-3.596 E4.68307
G1 X8.742 Y-3.031 E4.68786
G1 F1460.4 X9.021 Y-2.062 E4.69565
G1 F1463.4 X9.195 Y-1.032 E4.70371
G1 X9.251 Y-0.015 E4.71157
G1 X9.197 Y1.006 E4.71945
G1 X9.032 Y2.003 E4.72724
G1 F1460.4 X8.769 Y2.939 E4.73476
G1 F1454.5 X8.37 Y3.94 E4.74312
G1 F1451.6 X7.891 Y4.824 E4.75094
G1 F1448.7 X7.307 Y5.673 E4.75896
G1 F1445.8 X6.628 Y6.451 E4.76703
G1 F1442.9 X5.896 Y7.128 E4.77482
G1 F1448.7 X5.038 Y7.757 E4.78311
G1 F1451.6 X4.148 Y8.265 E4.79108
G1 F1448.7 X3.2 Y8.677 E4.79913
G1 F1451.6 X2.218 Y8.979 E4.80712
G1 F1457.5 X1.21 Y9.169 E4.81506
G1 F1614.3 X0.998 Y9.001 E4.81696
G1 F1800 X0.863 Y8.51 E4.82015
G1 X0.665 Y8.307 E4.82193
G1 X0.469 Y8.228 E4.82325
G1 F1690.1 X-.977 Y8.125 E4.83293
G1 F1522.2 X-1.311 Y8.029 E4.83551
G1 F1454.5 X-1.91 Y7.764 E4.84059
G1 F1457.5 X-2.457 Y7.404 E4.84566
G1 X-2.94 Y6.96 E4.85074
G1 X-3.344 Y6.441 E4.85584
G1 F1454.5 X-3.657 Y5.863 E4.86094
G1 F1451.6 X-3.873 Y5.247 E4.86601
G1 F1445.8 X-3.987 Y4.567 E4.87139
G1 F1440 X-3.987 Y3.933 E4.87636
G1 F1445.8 X-3.873 Y3.253 E4.88175
G1 F1451.6 X-3.669 Y2.664 E4.88659
G1 F1454.5 X-3.344 Y2.059 E4.89192
G1 F1457.5 X-2.94 Y1.54 E4.89701
G1 X-2.457 Y1.096 E4.90209
G1 X-1.91 Y0.736 E4.90716
G1 F1454.5 X-1.311 Y0.471 E4.91225
G1 F1451.6 X-.639 Y0.302 E4.91763
G1 F1442.9 X0.672 Y0.198 E4.92792
G1 F1437.1 X1.329 Y0.046 E4.93322
G1 F1434.3 X1.954 Y-.199 E4.9385
G1 F1431.4 X2.532 Y-.533 E4.94376
G1 F1428.6 X3.054 Y-.95 E4.94904
G1 X3.52 Y-1.452 E4.95445
G1 X3.891 Y-1.997 E4.95966
