;FLAVOR:Marlin
;TIME:140
;Filament used: 0.0958308m
;Layer height: 0.2
;MINX:38
;MINY:38
;MINZ:0.2
;MAXX:62
;MAXY:62
;MAXZ:5
;TARGET_MACHINE.NAME:Unknown
;Generated with Cura_SteamEngine 5.8.1
M104 S200
M105
M109 S200
M82 ;absolute extrusion mode
; M42 P1 S* : Laser Digital On/Off; 0 or 1
;        S* : Laser Modulation; 0~1
; M42 P2 S* : Feeder_ Analog On/Off; 0~1
; M42 P3 S* : Feeder_ Digital On/Off; 0 or 1
G21 G90 G17 G55 ;(mm, ABS, xy plane, g55 system)
G1 X0 Y0 F1000

G92 E0
G92 E0
G1 F1500 E-6.5
;LAYER_COUNT:25
;LAYER:0
M107
G0 F3600 X39.908 Y40.186 Z0.2
;TYPE:SKIRT
G1 F1500 E0
G1 F1800 X40.864 Y39.341 E0.08
G1 X41.694 Y38.839 E0.14082
G1 X42.379 Y38.518 E0.18826
G1 X43.346 Y38.185 E0.25238
G1 X44.589 Y38 E0.33118
G1 X55.219 Y38 E0.9977
G1 X56.332 Y38.119 E1.06789
G1 X57.323 Y38.407 E1.13259
G1 X58.207 Y38.768 E1.19247
G1 X59.064 Y39.312 E1.25611
G1 X59.814 Y39.908 E1.31618
G1 X60.659 Y40.864 E1.39618
G1 X61.161 Y41.694 E1.457
G1 X61.482 Y42.379 E1.50444
G1 X61.815 Y43.346 E1.56856
G1 X62 Y44.589 E1.64736
G1 X62 Y55.219 E2.31388
G1 X61.881 Y56.332 E2.38407
G1 X61.593 Y57.323 E2.44877
G1 X61.232 Y58.207 E2.50865
G1 X60.688 Y59.064 E2.57229
G1 X60.092 Y59.815 E2.63241
G1 X59.127 Y60.666 E2.71308
G1 X58.342 Y61.14 E2.77058
G1 X57.692 Y61.458 E2.81595
G1 X56.645 Y61.816 E2.88533
G1 X55.414 Y62 E2.96338
G1 X44.781 Y62 E3.63009
G1 X43.668 Y61.881 E3.70027
G1 X42.677 Y61.593 E3.76498
G1 X41.793 Y61.232 E3.82485
G1 X40.936 Y60.688 E3.8885
G1 X40.186 Y60.092 E3.94857
G1 X39.341 Y59.136 E4.02857
G1 X38.839 Y58.306 E4.08939
G1 X38.518 Y57.621 E4.13682
G1 X38.185 Y56.654 E4.20095
G1 X38 Y55.411 E4.27975
G1 X38 Y44.781 E4.94627
G1 X38.119 Y43.668 E5.01645
G1 X38.407 Y42.677 E5.08116
G1 X38.768 Y41.793 E5.14103
G1 X39.312 Y40.936 E5.20468
G1 X39.908 Y40.186 E5.26475
G0 F3600 X41.364 Y41.568
G1 F1800 X42.055 Y40.958 E5.32254
G1 X42.632 Y40.609 E5.36482
G1 X43.137 Y40.372 E5.3998
G1 X43.823 Y40.136 E5.44529
G1 X44.736 Y40 E5.50317
G1 X55.109 Y40 E6.15357
G1 X55.949 Y40.09 E6.20654
G1 X56.661 Y40.297 E6.25304
G1 X57.285 Y40.552 E6.2953
G1 X57.903 Y40.944 E6.34119
G1 X58.432 Y41.364 E6.38354
G1 X59.042 Y42.055 E6.44134
G1 X59.391 Y42.632 E6.48362
G1 X59.628 Y43.137 E6.5186
G1 X59.864 Y43.823 E6.56409
G1 X60 Y44.736 E6.62196
G1 X60 Y55.109 E7.27237
G1 X59.91 Y55.949 E7.32534
G1 X59.703 Y56.661 E7.37183
G1 X59.448 Y57.285 E7.4141
G1 X59.056 Y57.903 E7.45999
G1 X58.636 Y58.432 E7.50234
G1 X57.939 Y59.047 E7.56062
G1 X57.308 Y59.428 E7.60684
G1 X56.924 Y59.607 E7.63341
G1 X56.179 Y59.863 E7.6828
G1 X55.265 Y60 E7.74075
G1 X44.891 Y60 E8.39122
G1 X44.051 Y59.91 E8.44419
G1 X43.339 Y59.703 E8.49068
G1 X42.715 Y59.448 E8.53295
G1 X42.097 Y59.056 E8.57884
G1 X41.568 Y58.636 E8.62119
G1 X40.958 Y57.945 E8.67898
G1 X40.609 Y57.368 E8.72127
G1 X40.372 Y56.863 E8.75624
G1 X40.136 Y56.177 E8.80173
G1 X40 Y55.264 E8.85961
G1 X40 Y44.891 E9.51002
G1 X40.09 Y44.051 E9.56299
G1 X40.297 Y43.339 E9.60948
G1 X40.552 Y42.715 E9.65175
G1 X40.944 Y42.097 E9.69763
G1 X41.364 Y41.568 E9.73999
G1 F1500 E3.23999
G0 F3600 X44.339 Y44.249
G1 F1500 E9.73999
G1 F1800 X44.575 Y44.095 E9.75766
G1 X44.884 Y44 E9.77793
G1 X55 Y44 E10.41222
G1 X55.279 Y44.04 E10.42989
G1 X55.536 Y44.156 E10.44757
G1 X55.751 Y44.339 E10.46527
G1 X55.905 Y44.575 E10.48294
G1 X56 Y44.884 E10.50321
G1 X56 Y55 E11.1375
G1 X55.96 Y55.279 E11.15518
G1 X55.844 Y55.536 E11.17286
G1 X55.661 Y55.751 E11.19056
G1 X55.425 Y55.905 E11.20823
G1 X55.116 Y56 E11.2285
G1 X45 Y56 E11.86279
G1 X44.721 Y55.96 E11.88046
G1 X44.464 Y55.844 E11.89814
G1 X44.249 Y55.661 E11.91585
G1 X44.095 Y55.425 E11.93352
G1 X44 Y55.116 E11.95379
G1 X44 Y45 E12.58808
G1 X44.04 Y44.721 E12.60575
G1 X44.156 Y44.464 E12.62343
G1 X44.339 Y44.249 E12.64113
G0 F3600 X42.816 Y42.953
G1 F1800 X43.246 Y42.574 E12.67707
G1 X43.482 Y42.42 E12.69474
G1 X43.987 Y42.183 E12.72972
G1 X44.296 Y42.088 E12.74999
G1 X44.884 Y42 E12.78727
G1 X55 Y42 E13.42156
G1 X55.563 Y42.06 E13.45706
G1 X56.102 Y42.217 E13.49226
G1 X56.359 Y42.333 E13.50994
G1 X56.832 Y42.633 E13.54506
G1 X57.047 Y42.816 E13.56277
G1 X57.426 Y43.246 E13.59871
G1 X57.58 Y43.482 E13.61638
G1 X57.817 Y43.987 E13.65135
G1 X57.912 Y44.296 E13.67162
G1 X58 Y44.884 E13.7089
G1 X58 Y55 E14.3432
G1 X57.94 Y55.563 E14.3787
G1 X57.783 Y56.102 E14.4139
G1 X57.667 Y56.359 E14.43158
G1 X57.367 Y56.832 E14.4667
G1 X57.184 Y57.047 E14.4844
G1 X56.754 Y57.426 E14.52034
G1 X56.274 Y57.716 E14.5555
G1 X55.704 Y57.912 E14.5933
G1 X55.116 Y58 E14.63058
G1 X45 Y58 E15.26487
G1 X44.437 Y57.94 E15.30037
G1 X43.898 Y57.783 E15.33557
G1 X43.641 Y57.667 E15.35325
G1 X43.168 Y57.367 E15.38837
G1 X42.953 Y57.184 E15.40607
G1 X42.574 Y56.754 E15.44201
G1 X42.42 Y56.518 E15.45968
G1 X42.183 Y56.013 E15.49466
G1 X42.088 Y55.704 E15.51493
G1 X42 Y55.116 E15.55221
G1 X42 Y45 E16.1865
G1 X42.06 Y44.437 E16.222
G1 X42.217 Y43.898 E16.2572
G1 X42.333 Y43.641 E16.27488
G1 X42.633 Y43.168 E16.31
G1 X42.816 Y42.953 E16.32771
G1 F1500 E9.82771
;MESH:Half cube.stl
G0 F3600 X47.014 Y47.014
G0 X54 Y54
;TYPE:WALL-OUTER
G1 F1500 E16.32771
G1 F1800 X46 Y54 E16.82932
G1 X46 Y46 E17.33094
G1 X54 Y46 E17.83255
G1 X54 Y54 E18.33417
G0 F3600 X54 Y53
G0 X50.93 Y50.93
G0 X52.1 Y52.1
;TYPE:SKIN
G1 F1800 X47.9 Y52.1 E18.59751
G1 X47.9 Y47.9 E18.86086
G1 X52.1 Y47.9 E19.12421
G1 X52.1 Y52.1 E19.38756
G0 F3600 X50.93 Y50.93
G0 X49.07 Y49.07
G0 X48.9 Y48.9
G1 F1800 X51.1 Y51.1 E19.58264
;MESH:NONMESH
G0 F600 X51.1 Y51.1 Z0.4
G0 F3600 X50.93 Y50.93
G0 X52.93 Y52.93
G0 X54 Y54
;TIME_ELAPSED:15.221384
;LAYER:1
;note -- min layer time used
M106 S255
;TYPE:WALL-OUTER
;MESH:Half cube.stl
G1 F623 X46 Y54 E20.08425
G1 X46 Y46 E20.58587
G1 X54 Y46 E21.08748
G1 X54 Y54 E21.5891
G0 F5400 X54 Y53
G0 X50.93 Y50.93
G0 X50.275 Y50
;TYPE:SKIN
G1 F566.4 X50.138 Y50.238 E21.60804
G1 X49.863 Y50.238 E21.62701
G1 X49.725 Y50 E21.64598
G1 X49.862 Y49.762 E21.66492
G1 X50.137 Y49.762 E21.68389
G1 X50.275 Y50 E21.70287
G0 F5400 X50.93 Y50.93
G0 X52.1 Y52.1
G1 F623 X47.9 Y52.1 E21.96621
G1 X47.9 Y47.9 E22.22956
G1 X52.1 Y47.9 E22.49291
G1 X52.1 Y52.1 E22.75626
;MESH:NONMESH
G0 F600 X52.1 Y52.1 Z0.6
G0 F5400 X50.93 Y50.93
G0 X52.93 Y52.93
G0 X54 Y54
;TIME_ELAPSED:20.417027
;LAYER:2
;note -- min layer time used
;TYPE:WALL-OUTER
;MESH:Half cube.stl
G1 F617 X46 Y54 E23.25787
G1 X46 Y46 E23.75949
G1 X54 Y46 E24.2611
G1 X54 Y54 E24.76272
G0 F7200 X54 Y53
G0 X50.93 Y50.93
G0 X50.275 Y50
;TYPE:SKIN
G1 F560.9 X50.138 Y50.238 E24.78166
G1 X49.863 Y50.238 E24.80062
G1 X49.725 Y50 E24.8196
G1 X49.862 Y49.762 E24.83854
G1 X50.137 Y49.762 E24.85751
G1 X50.275 Y50 E24.87648
G0 F7200 X50.93 Y50.93
G0 X52.1 Y52.1
G1 F617 X47.9 Y52.1 E25.13983
G1 X47.9 Y47.9 E25.40318
G1 X52.1 Y47.9 E25.66653
G1 X52.1 Y52.1 E25.92987
;MESH:NONMESH
G0 F600 X52.1 Y52.1 Z0.8
G0 F7200 X50.93 Y50.93
G0 X52.93 Y52.93
G0 X54 Y54
;TIME_ELAPSED:25.648209
;LAYER:3
;note -- min layer time used
;TYPE:WALL-OUTER
;MESH:Half cube.stl
G1 F617 X46 Y54 E26.43149
G1 X46 Y46 E26.9331
G1 X54 Y46 E27.43472
G1 X54 Y54 E27.93633
G0 F7200 X54 Y53
G0 X50.93 Y50.93
G0 X50.275 Y50
;TYPE:SKIN
G1 F560.9 X50.138 Y50.238 E27.95527
G1 X49.863 Y50.238 E27.97424
G1 X49.725 Y50 E27.99322
G1 X49.862 Y49.762 E28.01216
G1 X50.137 Y49.762 E28.03112
G1 X50.275 Y50 E28.0501
G0 F7200 X50.93 Y50.93
G0 X52.1 Y52.1
G1 F617 X47.9 Y52.1 E28.31345
G1 X47.9 Y47.9 E28.5768
G1 X52.1 Y47.9 E28.84014
G1 X52.1 Y52.1 E29.10349
;MESH:NONMESH
G0 F600 X52.1 Y52.1 Z1
G0 F7200 X50.93 Y50.93
G0 X52.93 Y52.93
G0 X54 Y54
;TIME_ELAPSED:30.879391
;LAYER:4
;note -- min layer time used
;TYPE:WALL-OUTER
;MESH:Half cube.stl
G1 F617 X46 Y54 E29.60511
G1 X46 Y46 E30.10672
G1 X54 Y46 E30.60834
G1 X54 Y54 E31.10995
G0 F7200 X54 Y53
G0 X50.93 Y50.93
G0 X50.275 Y50
;TYPE:SKIN
G1 F560.9 X50.138 Y50.238 E31.12889
G1 X49.863 Y50.238 E31.14786
G1 X49.725 Y50 E31.16683
G1 X49.862 Y49.762 E31.18577
G1 X50.137 Y49.762 E31.20474
G1 X50.275 Y50 E31.22372
G0 F7200 X50.93 Y50.93
G0 X52.1 Y52.1
G1 F617 X47.9 Y52.1 E31.48706
G1 X47.9 Y47.9 E31.75041
G1 X52.1 Y47.9 E32.01376
G1 X52.1 Y52.1 E32.27711
;MESH:NONMESH
G0 F600 X52.1 Y52.1 Z1.2
G0 F7200 X50.93 Y50.93
G0 X52.93 Y52.93
G0 X54 Y54
;TIME_ELAPSED:36.110573
;LAYER:5
;note -- min layer time used
;TYPE:WALL-OUTER
;MESH:Half cube.stl
G1 F617 X46 Y54 E32.77872
G1 X46 Y46 E33.28034
G1 X54 Y46 E33.78195
G1 X54 Y54 E34.28357
G0 F7200 X54 Y53
G0 X50.93 Y50.93
G0 X50.275 Y50
;TYPE:SKIN
G1 F560.9 X50.138 Y50.238 E34.30251
G1 X49.863 Y50.238 E34.32148
G1 X49.725 Y50 E34.34045
G1 X49.862 Y49.762 E34.35939
G1 X50.137 Y49.762 E34.37836
G1 X50.275 Y50 E34.39733
G0 F7200 X50.93 Y50.93
G0 X52.1 Y52.1
G1 F617 X47.9 Y52.1 E34.66068
G1 X47.9 Y47.9 E34.92403
G1 X52.1 Y47.9 E35.18738
G1 X52.1 Y52.1 E35.45072
;MESH:NONMESH
G0 F600 X52.1 Y52.1 Z1.4
G0 F7200 X50.93 Y50.93
G0 X52.93 Y52.93
G0 X54 Y54
;TIME_ELAPSED:41.341755
;LAYER:6
;note -- min layer time used
;TYPE:WALL-OUTER
;MESH:Half cube.stl
G1 F617 X46 Y54 E35.95234
G1 X46 Y46 E36.45395
G1 X54 Y46 E36.95557
G1 X54 Y54 E37.45718
G0 F7200 X54 Y53
G0 X50.93 Y50.93
G0 X50.275 Y50
;TYPE:SKIN
G1 F560.9 X50.138 Y50.238 E37.47613
G1 X49.863 Y50.238 E37.49509
G1 X49.725 Y50 E37.51407
G1 X49.862 Y49.762 E37.53301
G1 X50.137 Y49.762 E37.55198
G1 X50.275 Y50 E37.57095
G0 F7200 X50.93 Y50.93
G0 X52.1 Y52.1
G1 F617 X47.9 Y52.1 E37.8343
G1 X47.9 Y47.9 E38.09765
G1 X52.1 Y47.9 E38.36099
G1 X52.1 Y52.1 E38.62434
;MESH:NONMESH
G0 F600 X52.1 Y52.1 Z1.6
G0 F7200 X50.93 Y50.93
G0 X52.93 Y52.93
G0 X54 Y54
;TIME_ELAPSED:46.572937
;LAYER:7
;note -- min layer time used
;TYPE:WALL-OUTER
;MESH:Half cube.stl
G1 F617 X46 Y54 E39.12596
G1 X46 Y46 E39.62757
G1 X54 Y46 E40.12919
G1 X54 Y54 E40.6308
G0 F7200 X54 Y53
G0 X50.93 Y50.93
G0 X50.275 Y50
;TYPE:SKIN
G1 F560.9 X50.138 Y50.238 E40.64974
G1 X49.863 Y50.238 E40.66871
G1 X49.725 Y50 E40.68768
G1 X49.862 Y49.762 E40.70663
G1 X50.137 Y49.762 E40.72559
G1 X50.275 Y50 E40.74457
G0 F7200 X50.93 Y50.93
G0 X52.1 Y52.1
G1 F617 X47.9 Y52.1 E41.00792
G1 X47.9 Y47.9 E41.27126
G1 X52.1 Y47.9 E41.53461
G1 X52.1 Y52.1 E41.79796
;MESH:NONMESH
G0 F600 X52.1 Y52.1 Z1.8
G0 F7200 X50.93 Y50.93
G0 X52.93 Y52.93
G0 X54 Y54
;TIME_ELAPSED:51.804119
;LAYER:8
;note -- min layer time used
;TYPE:WALL-OUTER
;MESH:Half cube.stl
G1 F617 X46 Y54 E42.29957
G1 X46 Y46 E42.80119
G1 X54 Y46 E43.3028
G1 X54 Y54 E43.80442
G0 F7200 X54 Y53
G0 X50.93 Y50.93
G0 X50.275 Y50
;TYPE:SKIN
G1 F560.9 X50.138 Y50.238 E43.82336
G1 X49.863 Y50.238 E43.84233
G1 X49.725 Y50 E43.8613
G1 X49.862 Y49.762 E43.88024
G1 X50.137 Y49.762 E43.89921
G1 X50.275 Y50 E43.91818
G0 F7200 X50.93 Y50.93
G0 X52.1 Y52.1
G1 F617 X47.9 Y52.1 E44.18153
G1 X47.9 Y47.9 E44.44488
G1 X52.1 Y47.9 E44.70823
G1 X52.1 Y52.1 E44.97158
;MESH:NONMESH
G0 F600 X52.1 Y52.1 Z2
G0 F7200 X50.93 Y50.93
G0 X52.93 Y52.93
G0 X54 Y54
;TIME_ELAPSED:57.035301
;LAYER:9
;note -- min layer time used
;TYPE:WALL-OUTER
;MESH:Half cube.stl
G1 F617 X46 Y54 E45.47319
G1 X46 Y46 E45.97481
G1 X54 Y46 E46.47642
G1 X54 Y54 E46.97804
G0 F7200 X54 Y53
G0 X50.93 Y50.93
G0 X50.275 Y50
;TYPE:SKIN
G1 F560.9 X50.138 Y50.238 E46.99698
G1 X49.863 Y50.238 E47.01594
G1 X49.725 Y50 E47.03492
G1 X49.862 Y49.762 E47.05386
G1 X50.137 Y49.762 E47.07283
G1 X50.275 Y50 E47.0918
G0 F7200 X50.93 Y50.93
G0 X52.1 Y52.1
G1 F617 X47.9 Y52.1 E47.35515
G1 X47.9 Y47.9 E47.6185
G1 X52.1 Y47.9 E47.88185
G1 X52.1 Y52.1 E48.14519
;MESH:NONMESH
G0 F600 X52.1 Y52.1 Z2.2
G0 F7200 X50.93 Y50.93
G0 X52.93 Y52.93
G0 X54 Y54
;TIME_ELAPSED:62.266483
;LAYER:10
;note -- min layer time used
;TYPE:WALL-OUTER
;MESH:Half cube.stl
G1 F617 X46 Y54 E48.64681
G1 X46 Y46 E49.14842
G1 X54 Y46 E49.65004
G1 X54 Y54 E50.15165
G0 F7200 X54 Y53
G0 X50.93 Y50.93
G0 X50.275 Y50
;TYPE:SKIN
G1 F560.9 X50.138 Y50.238 E50.17059
G1 X49.863 Y50.238 E50.18956
G1 X49.725 Y50 E50.20854
G1 X49.862 Y49.762 E50.22748
G1 X50.137 Y49.762 E50.24644
G1 X50.275 Y50 E50.26542
G0 F7200 X50.93 Y50.93
G0 X52.1 Y52.1
G1 F617 X47.9 Y52.1 E50.52877
G1 X47.9 Y47.9 E50.79211
G1 X52.1 Y47.9 E51.05546
G1 X52.1 Y52.1 E51.31881
;MESH:NONMESH
G0 F600 X52.1 Y52.1 Z2.4
G0 F7200 X50.93 Y50.93
G0 X52.93 Y52.93
G0 X54 Y54
;TIME_ELAPSED:67.497665
;LAYER:11
;note -- min layer time used
;TYPE:WALL-OUTER
;MESH:Half cube.stl
G1 F617 X46 Y54 E51.82042
G1 X46 Y46 E52.32204
G1 X54 Y46 E52.82365
G1 X54 Y54 E53.32527
G0 F7200 X54 Y53
G0 X50.93 Y50.93
G0 X50.275 Y50
;TYPE:SKIN
G1 F560.9 X50.138 Y50.238 E53.34421
G1 X49.863 Y50.238 E53.36318
G1 X49.725 Y50 E53.38215
G1 X49.862 Y49.762 E53.40109
G1 X50.137 Y49.762 E53.42006
G1 X50.275 Y50 E53.43904
G0 F7200 X50.93 Y50.93
G0 X52.1 Y52.1
G1 F617 X47.9 Y52.1 E53.70238
G1 X47.9 Y47.9 E53.96573
G1 X52.1 Y47.9 E54.22908
G1 X52.1 Y52.1 E54.49243
;MESH:NONMESH
G0 F600 X52.1 Y52.1 Z2.6
G0 F7200 X50.93 Y50.93
G0 X52.93 Y52.93
G0 X54 Y54
;TIME_ELAPSED:72.728847
;LAYER:12
;note -- min layer time used
;TYPE:WALL-OUTER
;MESH:Half cube.stl
G1 F617 X46 Y54 E54.99404
G1 X46 Y46 E55.49566
G1 X54 Y46 E55.99727
G1 X54 Y54 E56.49889
G0 F7200 X54 Y53
G0 X50.93 Y50.93
G0 X50.275 Y50
;TYPE:SKIN
G1 F560.9 X50.138 Y50.238 E56.51783
G1 X49.863 Y50.238 E56.53679
G1 X49.725 Y50 E56.55577
G1 X49.862 Y49.762 E56.57471
G1 X50.137 Y49.762 E56.59368
G1 X50.275 Y50 E56.61265
G0 F7200 X50.93 Y50.93
G0 X52.1 Y52.1
G1 F617 X47.9 Y52.1 E56.876
G1 X47.9 Y47.9 E57.13935
G1 X52.1 Y47.9 E57.4027
G1 X52.1 Y52.1 E57.66604
;MESH:NONMESH
G0 F600 X52.1 Y52.1 Z2.8
G0 F7200 X50.93 Y50.93
G0 X52.93 Y52.93
G0 X54 Y54
;TIME_ELAPSED:77.960029
;LAYER:13
;note -- min layer time used
;TYPE:WALL-OUTER
;MESH:Half cube.stl
G1 F617 X46 Y54 E58.16766
G1 X46 Y46 E58.66927
G1 X54 Y46 E59.17089
G1 X54 Y54 E59.6725
G0 F7200 X54 Y53
G0 X50.93 Y50.93
G0 X50.275 Y50
;TYPE:SKIN
G1 F560.9 X50.138 Y50.238 E59.69144
G1 X49.863 Y50.238 E59.71041
G1 X49.725 Y50 E59.72939
G1 X49.862 Y49.762 E59.74833
G1 X50.137 Y49.762 E59.76729
G1 X50.275 Y50 E59.78627
G0 F7200 X50.93 Y50.93
G0 X52.1 Y52.1
G1 F617 X47.9 Y52.1 E60.04962
G1 X47.9 Y47.9 E60.31297
G1 X52.1 Y47.9 E60.57631
G1 X52.1 Y52.1 E60.83966
;MESH:NONMESH
G0 F600 X52.1 Y52.1 Z3
G0 F7200 X50.93 Y50.93
G0 X52.93 Y52.93
G0 X54 Y54
;TIME_ELAPSED:83.191211
;LAYER:14
;note -- min layer time used
;TYPE:WALL-OUTER
;MESH:Half cube.stl
G1 F617 X46 Y54 E61.34128
G1 X46 Y46 E61.84289
G1 X54 Y46 E62.34451
G1 X54 Y54 E62.84612
G0 F7200 X54 Y53
G0 X50.93 Y50.93
G0 X50.275 Y50
;TYPE:SKIN
G1 F560.9 X50.138 Y50.238 E62.86506
G1 X49.863 Y50.238 E62.88403
G1 X49.725 Y50 E62.903
G1 X49.862 Y49.762 E62.92194
G1 X50.137 Y49.762 E62.94091
G1 X50.275 Y50 E62.95989
G0 F7200 X50.93 Y50.93
G0 X52.1 Y52.1
G1 F617 X47.9 Y52.1 E63.22323
G1 X47.9 Y47.9 E63.48658
G1 X52.1 Y47.9 E63.74993
G1 X52.1 Y52.1 E64.01328
;MESH:NONMESH
G0 F600 X52.1 Y52.1 Z3.2
G0 F7200 X50.93 Y50.93
G0 X52.93 Y52.93
G0 X54 Y54
;TIME_ELAPSED:88.422393
;LAYER:15
;note -- min layer time used
;TYPE:WALL-OUTER
;MESH:Half cube.stl
G1 F617 X46 Y54 E64.51489
G1 X46 Y46 E65.01651
G1 X54 Y46 E65.51812
G1 X54 Y54 E66.01974
G0 F7200 X54 Y53
G0 X50.93 Y50.93
G0 X50.275 Y50
;TYPE:SKIN
G1 F560.9 X50.138 Y50.238 E66.03868
G1 X49.863 Y50.238 E66.05765
G1 X49.725 Y50 E66.07662
G1 X49.862 Y49.762 E66.09556
G1 X50.137 Y49.762 E66.11453
G1 X50.275 Y50 E66.1335
G0 F7200 X50.93 Y50.93
G0 X52.1 Y52.1
G1 F617 X47.9 Y52.1 E66.39685
G1 X47.9 Y47.9 E66.6602
G1 X52.1 Y47.9 E66.92355
G1 X52.1 Y52.1 E67.18689
;MESH:NONMESH
G0 F600 X52.1 Y52.1 Z3.4
G0 F7200 X50.93 Y50.93
G0 X52.93 Y52.93
G0 X54 Y54
;TIME_ELAPSED:93.653575
;LAYER:16
;note -- min layer time used
;TYPE:WALL-OUTER
;MESH:Half cube.stl
G1 F617 X46 Y54 E67.68851
G1 X46 Y46 E68.19012
G1 X54 Y46 E68.69174
G1 X54 Y54 E69.19335
G0 F7200 X54 Y53
G0 X50.93 Y50.93
G0 X50.275 Y50
;TYPE:SKIN
G1 F560.9 X50.138 Y50.238 E69.21229
G1 X49.863 Y50.238 E69.23126
G1 X49.725 Y50 E69.25024
G1 X49.862 Y49.762 E69.26918
G1 X50.137 Y49.762 E69.28815
G1 X50.275 Y50 E69.30712
G0 F7200 X50.93 Y50.93
G0 X52.1 Y52.1
G1 F617 X47.9 Y52.1 E69.57047
G1 X47.9 Y47.9 E69.83382
G1 X52.1 Y47.9 E70.09716
G1 X52.1 Y52.1 E70.36051
;MESH:NONMESH
G0 F600 X52.1 Y52.1 Z3.6
G0 F7200 X50.93 Y50.93
G0 X52.93 Y52.93
G0 X54 Y54
;TIME_ELAPSED:98.884757
;LAYER:17
;note -- min layer time used
