;START_OF_HEADER
;HEADER_VERSION:0.1
;FLAVOR:Griffin
;GENERATOR.NAME:Cura_SteamEngine
;GENERATOR.VERSION:5.8.1
;GENERATOR.BUILD_DATE:2024-08-28
;TARGET_MACHINE.NAME:Ultimaker S7
;EXTRUDER_TRAIN.0.INITIAL_TEMPERATURE:205
;EXTRUDER_TRAIN.0.MATERIAL.VOLUME_USED:5456
;EXTRUDER_TRAIN.0.MATERIAL.GUID:44a029e6-e31b-4c9e-a12f-9282e29a92ff
;EXTRUDER_TRAIN.0.NOZZLE.DIAMETER:0.4
;EXTRUDER_TRAIN.0.NOZZLE.NAME:AA 0.4
;BUILD_PLATE.INITIAL_TEMPERATURE:60
;BUILD_VOLUME.TEMPERATURE:28
;PRINT.TIME:1602
;PRINT.GROUPS:1
;PRINT.SIZE.MIN.X:150.429
;PRINT.SIZE.MIN.Y:91.85
;PRINT.SIZE.MIN.Z:0.2
;PRINT.SIZE.MAX.X:330
;PRINT.SIZE.MAX.Y:237
;PRINT.SIZE.MAX.Z:24.4
;SLICE_UUID:69ff3811-a1c7-4bd8-9120-2214d3f186c2
;END_OF_HEADER
;Generated with Cura_SteamEngine 5.8.1
T0
M82 ;absolute extrusion mode

G92 E0
M190 S60
M104 S205
M109 S205
G280 S1
G0 Z20.001
G1 F2700 E-6.5
;LAYER_COUNT:122
G0 F9000 X330 Y237
;LAYER:0
M106 S255
M204 S1500
M205 X30 Y30
G1 F600 Z2.2
G0 F9000 X177.077 Y128.878 Z2.2
;TYPE:SKIRT
G1 F600 Z0.2
G1 F2700 E0
G1 F1800 X175.885 Y130.411 E0.02435
G1 X173.924 Y132.389 E0.05928
G1 X171.562 Y133.778 E0.09364
G1 X169.428 Y134.757 E0.12309
G1 X166.804 Y135.274 E0.15662
G1 X164.985 Y135.41 E0.1795
G1 X163.584 Y135.34 E0.19709
G1 X160.888 Y134.849 E0.23146
G1 X158.27 Y133.688 E0.26737
G1 X156.066 Y132.39 E0.29945
G1 X154.225 Y130.547 E0.33211
G1 X152.724 Y128.574 E0.3632
G1 X151.559 Y126.475 E0.39331
G1 X150.818 Y124.02 E0.42546
G1 X150.429 Y121.851 E0.4531
G1 X150.598 Y118.237 E0.49847
G1 X151.482 Y115.428 E0.5354
G1 X152.66 Y113.086 E0.56827
G1 X153.914 Y111.367 E0.59496
G1 X155.642 Y109.631 E0.62567
G1 X157.464 Y108.295 E0.65401
G1 X159.224 Y107.347 E0.67908
G1 X161.047 Y106.21 E0.70602
G1 X163.194 Y105.708 E0.73367
G1 X166.876 Y105.708 E0.77984
G1 X168.99 Y106.246 E0.8072
G1 X170.34 Y106.969 E0.8264
G1 X170.913 Y107.445 E0.83574
G1 X172.004 Y107.97 E0.85093
G1 X173.333 Y108.835 E0.87081
G1 X174.989 Y110.135 E0.89721
G1 X176.949 Y112.393 E0.93471
G1 X178.158 Y114.575 E0.96599
G1 X178.945 Y116.66 E0.99394
G1 X179.355 Y118.504 E1.01763
G1 X179.589 Y121.591 E1.05645
G1 X179.136 Y124.153 E1.08908
G1 X178.203 Y126.862 E1.12501
G1 X177.077 Y128.878 E1.15397
G0 F9000 X176.761 Y128.632
G1 F1800 X175.569 Y130.165 E1.17832
G1 X173.677 Y132.07 E1.21199
G1 X171.359 Y133.433 E1.24571
G1 X169.303 Y134.374 E1.27406
G1 X166.774 Y134.875 E1.3064
G1 X165.004 Y135.01 E1.32866
G1 X163.656 Y134.946 E1.34558
G1 X161.006 Y134.463 E1.37936
G1 X158.473 Y133.343 E1.41409
G1 X156.313 Y132.071 E1.44553
G1 X154.508 Y130.264 E1.47756
G1 X153.074 Y128.38 E1.50725
G1 X151.93 Y126.318 E1.53682
G1 X151.212 Y123.949 E1.56786
G1 X150.831 Y121.825 E1.59492
G1 X150.996 Y118.307 E1.63909
G1 X151.864 Y115.548 E1.67536
G1 X152.983 Y113.322 E1.7066
G1 X154.237 Y111.603 E1.73328
G1 X155.879 Y109.954 E1.76247
G1 X157.701 Y108.618 E1.7908
G1 X159.417 Y107.698 E1.81522
G1 X161.201 Y106.585 E1.84159
G1 X163.242 Y106.108 E1.86787
G1 X166.824 Y106.108 E1.91279
G1 X168.844 Y106.622 E1.93893
G1 X170.118 Y107.304 E1.95705
G1 X170.696 Y107.785 E1.96648
G1 X171.786 Y108.305 E1.98162
G1 X173.086 Y109.15 E2.00107
G1 X174.714 Y110.428 E2.02702
G1 X176.618 Y112.622 E2.06345
G1 X177.808 Y114.769 E2.09424
G1 X178.555 Y116.748 E2.12076
G1 X178.956 Y118.534 E2.14372
G1 X179.186 Y121.571 E2.18191
G1 X178.742 Y124.083 E2.2139
G1 X177.853 Y126.668 E2.24818
G1 X176.761 Y128.632 E2.27636
G0 F9000 X176.445 Y128.387
G1 F1800 X175.285 Y129.883 E2.3001
G1 X173.43 Y131.751 E2.33311
G1 X171.192 Y133.069 E2.36569
G1 X169.176 Y133.992 E2.39349
G1 X166.743 Y134.476 E2.4246
G1 X165.023 Y134.61 E2.44623
G1 X163.675 Y134.546 E2.46316
G1 X161.126 Y134.079 E2.49565
G1 X158.676 Y132.998 E2.52924
G1 X156.56 Y131.752 E2.56003
G1 X154.791 Y129.981 E2.59142
G1 X153.424 Y128.186 E2.61972
G1 X152.301 Y126.161 E2.64875
G1 X151.606 Y123.878 E2.67868
G1 X151.233 Y121.799 E2.70517
G1 X151.394 Y118.377 E2.74813
G1 X152.246 Y115.668 E2.78374
G1 X153.306 Y113.558 E2.81335
G1 X154.56 Y111.839 E2.84004
G1 X156.116 Y110.277 E2.86768
G1 X157.938 Y108.941 E2.89602
G1 X159.616 Y108.045 E2.91987
G1 X161.357 Y106.959 E2.9456
G1 X163.286 Y106.508 E2.97045
G1 X166.772 Y106.508 E3.01416
G1 X168.698 Y106.998 E3.03908
G1 X169.896 Y107.639 E3.05612
G1 X170.478 Y108.124 E3.06562
G1 X171.568 Y108.641 E3.08075
G1 X172.839 Y109.465 E3.09975
G1 X174.439 Y110.721 E3.12526
G1 X176.287 Y112.851 E3.16062
G1 X177.458 Y114.963 E3.1909
G1 X178.165 Y116.836 E3.21601
G1 X178.557 Y118.564 E3.23823
G1 X178.783 Y121.551 E3.27579
G1 X178.348 Y124.013 E3.30715
G1 X177.475 Y126.537 E3.34064
G1 X176.445 Y128.387 E3.36719
G0 F9000 X176.129 Y128.142
G1 F1800 X175.001 Y129.601 E3.39032
G1 X173.183 Y131.432 E3.42268
G1 X171.025 Y132.705 E3.4541
G1 X169.049 Y133.61 E3.48135
G1 X166.711 Y134.077 E3.51125
G1 X165.042 Y134.21 E3.53225
G1 X163.694 Y134.146 E3.54917
G1 X161.246 Y133.695 E3.58038
G1 X158.879 Y132.653 E3.61282
G1 X156.807 Y131.433 E3.64297
G1 X155.074 Y129.698 E3.67372
G1 X153.774 Y127.992 E3.70062
G1 X152.672 Y126.005 E3.72911
G1 X152 Y123.807 E3.75794
G1 X151.635 Y121.773 E3.78385
G1 X151.792 Y118.447 E3.82561
G1 X152.628 Y115.788 E3.86056
G1 X153.629 Y113.794 E3.88854
G1 X154.883 Y112.075 E3.91522
G1 X156.353 Y110.6 E3.94134
G1 X158.175 Y109.264 E3.96967
G1 X159.815 Y108.392 E3.99296
G1 X161.511 Y107.334 E4.01803
G1 X163.334 Y106.908 E4.04151
G1 X166.72 Y106.908 E4.08397
G1 X168.552 Y107.374 E4.10767
G1 X169.674 Y107.974 E4.12363
G1 X170.262 Y108.464 E4.13323
G1 X171.351 Y108.977 E4.14832
G1 X172.592 Y109.78 E4.16686
G1 X174.164 Y111.014 E4.19192
G1 X175.956 Y113.08 E4.22622
G1 X177.108 Y115.157 E4.256
G1 X177.775 Y116.926 E4.27971
G1 X178.158 Y118.594 E4.30117
G1 X178.38 Y121.531 E4.33811
G1 X177.954 Y123.943 E4.36882
G1 X177.125 Y126.343 E4.40067
G1 X176.129 Y128.142 E4.42645
G0 F9000 X175.812 Y127.898
G1 F1800 X174.717 Y129.319 E4.44895
G1 X172.933 Y131.116 E4.4807
G1 X170.858 Y132.341 E4.51092
G1 X168.922 Y133.228 E4.53763
G1 X166.678 Y133.678 E4.56633
G1 X165.061 Y133.81 E4.58667
G1 X163.713 Y133.746 E4.6036
G1 X161.365 Y133.31 E4.63354
G1 X159.082 Y132.308 E4.66481
G1 X157.054 Y131.114 E4.69432
G1 X155.392 Y129.455 E4.72377
G1 X154.124 Y127.798 E4.74994
G1 X153.041 Y125.845 E4.77794
G1 X152.394 Y123.736 E4.80561
G1 X152.037 Y121.747 E4.83095
G1 X152.19 Y118.516 E4.87151
G1 X152.986 Y115.967 E4.905
G1 X153.952 Y114.03 E4.93214
G1 X155.206 Y112.311 E4.95883
G1 X156.59 Y110.923 E4.98341
G1 X158.412 Y109.587 E5.01174
G1 X160.008 Y108.743 E5.03438
G1 X161.667 Y107.708 E5.0589
G1 X163.378 Y107.308 E5.08094
G1 X166.668 Y107.308 E5.12219
G1 X168.406 Y107.75 E5.14468
G1 X169.485 Y108.327 E5.16003
G1 X170.047 Y108.806 E5.16929
G1 X171.134 Y109.313 E5.18433
G1 X172.345 Y110.095 E5.20241
G1 X173.889 Y111.307 E5.22702
G1 X175.625 Y113.309 E5.26025
G1 X176.758 Y115.351 E5.28954
G1 X177.385 Y117.017 E5.31186
G1 X177.759 Y118.624 E5.33255
G1 X177.977 Y121.511 E5.36886
G1 X177.56 Y123.873 E5.39894
G1 X176.775 Y126.15 E5.42914
G1 X175.812 Y127.898 E5.45417
G0 F9000 X175.495 Y127.654
G1 F1800 X174.433 Y129.037 E5.47603
G1 X172.684 Y130.798 E5.50716
G1 X170.691 Y131.977 E5.5362
G1 X168.795 Y132.846 E5.56235
G1 X166.645 Y133.279 E5.58985
G1 X165.08 Y133.41 E5.60955
G1 X163.732 Y133.346 E5.62647
G1 X161.484 Y132.926 E5.65515
G1 X159.243 Y131.942 E5.68584
G1 X157.301 Y130.796 E5.71412
G1 X155.709 Y129.211 E5.74229
G1 X154.474 Y127.604 E5.76771
G1 X153.41 Y125.686 E5.79521
G1 X152.788 Y123.665 E5.82173
G1 X152.439 Y121.721 E5.8465
G1 X152.588 Y118.585 E5.88587
G1 X153.368 Y116.086 E5.9187
G1 X154.275 Y114.266 E5.9442
G1 X155.529 Y112.547 E5.97088
G1 X156.827 Y111.245 E5.99394
G1 X158.599 Y109.941 E6.02153
G1 X160.201 Y109.094 E6.04425
G1 X161.821 Y108.083 E6.0682
G1 X163.426 Y107.708 E6.08887
G1 X166.616 Y107.708 E6.12887
G1 X168.26 Y108.126 E6.15015
G1 X169.296 Y108.68 E6.16488
G1 X169.828 Y109.145 E6.17374
G1 X170.917 Y109.649 E6.18879
G1 X172.098 Y110.41 E6.20641
G1 X173.614 Y111.6 E6.23058
G1 X175.296 Y113.54 E6.26277
G1 X176.384 Y115.492 E6.2908
G1 X176.995 Y117.108 E6.31246
G1 X177.369 Y118.715 E6.33316
G1 X177.574 Y121.491 E6.36806
G1 X177.166 Y123.804 E6.39752
G1 X176.424 Y125.958 E6.42609
G1 X175.495 Y127.654 E6.45034
G0 F9000 X175.177 Y127.411
G1 F1800 X174.149 Y128.755 E6.47155
G1 X172.435 Y130.48 E6.50205
G1 X170.524 Y131.613 E6.52991
G1 X168.668 Y132.464 E6.55551
G1 X166.611 Y132.88 E6.58183
G1 X165.099 Y133.01 E6.60086
G1 X163.751 Y132.946 E6.61779
G1 X161.601 Y132.541 E6.64522
G1 X159.446 Y131.598 E6.67472
G1 X157.55 Y130.479 E6.70233
G1 X156.026 Y128.967 E6.72925
G1 X154.824 Y127.41 E6.75392
G1 X153.779 Y125.527 E6.78092
G1 X153.182 Y123.594 E6.8063
G1 X152.841 Y121.695 E6.83049
G1 X152.986 Y118.654 E6.86867
G1 X153.75 Y116.205 E6.90084
G1 X154.598 Y114.502 E6.9247
G1 X155.852 Y112.783 E6.95138
G1 X157.065 Y111.567 E6.97292
G1 X158.786 Y110.295 E6.99976
G1 X160.394 Y109.445 E7.02257
G1 X161.977 Y108.457 E7.04597
G1 X163.47 Y108.108 E7.06519
G1 X166.564 Y108.108 E7.10399
G1 X168.114 Y108.502 E7.12405
G1 X169.107 Y109.033 E7.13817
G1 X169.604 Y109.482 E7.14657
G1 X170.701 Y109.986 E7.16171
G1 X171.851 Y110.725 E7.17885
G1 X173.339 Y111.893 E7.20257
G1 X174.967 Y113.771 E7.23374
G1 X176.01 Y115.634 E7.26052
G1 X176.605 Y117.199 E7.28151
G1 X176.979 Y118.806 E7.3022
G1 X177.171 Y121.471 E7.33571
G1 X176.772 Y123.735 E7.36454
G1 X176.073 Y125.767 E7.39149
G1 X175.177 Y127.411 E7.41497
G0 F9000 X174.859 Y127.169
G1 F1800 X173.865 Y128.473 E7.43553
G1 X172.186 Y130.163 E7.4654
G1 X170.357 Y131.249 E7.49208
G1 X168.542 Y132.081 E7.51712
G1 X166.576 Y132.482 E7.54228
G1 X165.118 Y132.61 E7.56063
G1 X163.77 Y132.546 E7.57756
G1 X161.721 Y132.156 E7.60371
G1 X159.649 Y131.253 E7.63206
G1 X157.796 Y130.16 E7.65903
G1 X156.308 Y128.683 E7.68533
G1 X155.174 Y127.216 E7.70858
G1 X154.149 Y125.369 E7.73507
G1 X153.576 Y123.523 E7.75931
G1 X153.243 Y121.669 E7.78293
G1 X153.384 Y118.723 E7.81992
G1 X154.132 Y116.324 E7.85143
G1 X154.921 Y114.738 E7.87364
G1 X156.175 Y113.019 E7.90033
G1 X157.303 Y111.888 E7.92036
G1 X158.973 Y110.649 E7.94643
G1 X160.587 Y109.796 E7.96933
G1 X162.133 Y108.831 E7.99218
G1 X163.514 Y108.508 E8.00997
G1 X166.512 Y108.508 E8.04756
G1 X167.97 Y108.879 E8.06643
G1 X168.875 Y109.362 E8.07929
G1 X169.382 Y109.82 E8.08786
G1 X170.485 Y110.323 E8.10306
G1 X171.604 Y111.04 E8.11973
G1 X173.064 Y112.186 E8.14301
G1 X174.637 Y114 E8.17312
G1 X175.636 Y115.777 E8.19868
G1 X176.215 Y117.29 E8.219
G1 X176.589 Y118.897 E8.23969
G1 X176.768 Y121.45 E8.27178
G1 X176.378 Y123.666 E8.3
G1 X175.721 Y125.577 E8.32534
G1 X174.859 Y127.169 E8.34804
G0 F9000 X174.54 Y126.927
G1 F1800 X173.581 Y128.191 E8.36794
G1 X171.939 Y129.844 E8.39716
G1 X170.19 Y130.885 E8.42268
G1 X168.416 Y131.698 E8.44715
G1 X166.54 Y132.084 E8.47117
G1 X165.137 Y132.21 E8.48884
G1 X163.789 Y132.146 E8.50576
G1 X161.841 Y131.772 E8.53063
G1 X159.809 Y130.886 E8.55843
G1 X158.043 Y129.842 E8.58416
G1 X156.59 Y128.399 E8.60984
G1 X155.524 Y127.022 E8.63168
G1 X154.519 Y125.211 E8.65765
G1 X153.97 Y123.452 E8.68076
G1 X153.645 Y121.643 E8.70381
G1 X153.782 Y118.792 E8.7396
G1 X154.514 Y116.443 E8.77046
G1 X155.245 Y114.973 E8.79104
G1 X156.459 Y113.301 E8.81695
G1 X157.542 Y112.209 E8.83624
G1 X159.16 Y111.003 E8.86155
G1 X160.78 Y110.147 E8.88453
G1 X162.287 Y109.206 E8.90681
G1 X163.562 Y108.908 E8.92323
G1 X166.46 Y108.908 E8.95957
G1 X167.826 Y109.256 E8.97724
G1 X168.643 Y109.692 E8.98886
G1 X169.16 Y110.158 E8.99759
G1 X170.319 Y110.687 E9.01356
G1 X171.357 Y111.355 E9.02904
G1 X172.789 Y112.479 E9.05187
G1 X174.308 Y114.231 E9.08095
G1 X175.263 Y115.921 E9.10529
G1 X175.825 Y117.381 E9.12491
G1 X176.199 Y118.988 E9.1456
G1 X176.366 Y121.429 E9.17628
G1 X175.984 Y123.597 E9.20389
G1 X175.369 Y125.387 E9.22763
G1 X174.54 Y126.927 E9.24956
G0 F9000 X174.188 Y126.737
G1 F1800 X173.297 Y127.909 E9.26802
G1 X171.691 Y129.525 E9.29659
G1 X169.985 Y130.541 E9.32149
G1 X168.292 Y131.315 E9.34484
G1 X166.503 Y131.686 E9.36775
G1 X165.156 Y131.81 E9.38471
G1 X163.808 Y131.746 E9.40164
G1 X161.961 Y131.387 E9.42523
G1 X159.969 Y130.519 E9.45248
G1 X158.29 Y129.524 E9.47695
G1 X156.872 Y128.115 E9.50202
G1 X155.874 Y126.828 E9.52245
G1 X154.889 Y125.054 E9.54789
G1 X154.364 Y123.381 E9.56988
G1 X154.047 Y121.617 E9.59236
G1 X154.18 Y118.86 E9.62697
G1 X154.873 Y116.62 E9.65637
G1 X155.569 Y115.207 E9.67613
G1 X156.744 Y113.582 E9.70127
G1 X157.781 Y112.53 E9.7198
G1 X159.399 Y111.324 E9.74511
G1 X160.978 Y110.494 E9.76748
G1 X162.443 Y109.58 E9.78913
G1 X163.606 Y109.308 E9.80411
G1 X166.408 Y109.308 E9.83925
G1 X167.682 Y109.633 E9.85573
G1 X168.411 Y110.022 E9.8661
G1 X168.937 Y110.496 E9.87498
G1 X170.103 Y111.024 E9.89103
G1 X171.11 Y111.67 E9.90603
G1 X172.514 Y112.772 E9.92841
G1 X173.978 Y114.46 E9.95643
G1 X174.89 Y116.066 E9.97959
G1 X175.435 Y117.472 E9.9985
G1 X175.809 Y119.079 E10.01919
G1 X175.964 Y121.407 E10.04845
G1 X175.59 Y123.528 E10.07546
G1 X175.017 Y125.197 E10.09759
G1 X174.188 Y126.737 E10.11952
G0 F9000 X173.836 Y126.547
G1 F1800 X173.013 Y127.627 E10.13655
G1 X171.441 Y129.209 E10.16452
G1 X169.819 Y130.177 E10.18821
G1 X168.168 Y130.932 E10.21097
G1 X166.465 Y131.288 E10.23279
G1 X165.174 Y131.41 E10.24905
G1 X163.884 Y131.353 E10.26524
G1 X162.081 Y131.003 E10.28828
G1 X160.129 Y130.152 E10.31498
G1 X158.535 Y129.204 E10.33824
G1 X157.187 Y127.869 E10.36203
G1 X156.224 Y126.634 E10.38167
G1 X155.259 Y124.896 E10.4066
G1 X154.746 Y123.261 E10.42809
G1 X154.449 Y121.592 E10.44935
G1 X154.578 Y118.926 E10.48282
G1 X155.232 Y116.796 E10.51076
G1 X155.894 Y115.441 E10.52967
G1 X157.029 Y113.863 E10.55405
G1 X158.066 Y112.811 E10.57257
G1 X159.637 Y111.645 E10.59711
G1 X161.181 Y110.838 E10.61895
G1 X162.597 Y109.955 E10.63988
G1 X163.654 Y109.708 E10.65349
G1 X166.356 Y109.708 E10.68738
G1 X167.538 Y110.01 E10.70268
G1 X168.223 Y110.375 E10.71241
G1 X168.713 Y110.834 E10.72083
G1 X169.887 Y111.361 E10.73697
G1 X170.894 Y112.007 E10.75197
G1 X172.236 Y113.062 E10.77338
G1 X173.648 Y114.69 E10.8004
G1 X174.542 Y116.264 E10.8231
G1 X175.045 Y117.563 E10.84057
G1 X175.419 Y119.17 E10.86126
G1 X175.562 Y121.384 E10.88908
G1 X175.196 Y123.458 E10.91549
G1 X174.665 Y125.007 E10.93603
G1 X173.836 Y126.547 E10.95796
G0 F9000 X173.517 Y126.305
G1 F1800 X172.729 Y127.345 E10.97432
G1 X171.191 Y128.893 E11.00169
G1 X169.653 Y129.813 E11.02416
G1 X168.044 Y130.549 E11.04635
G1 X166.383 Y130.896 E11.06763
G1 X165.19 Y131.01 E11.08266
G1 X163.96 Y130.96 E11.0981
G1 X162.199 Y130.618 E11.12059
G1 X160.333 Y129.808 E11.1461
G1 X158.783 Y128.886 E11.16872
G1 X157.502 Y127.622 E11.19129
G1 X156.574 Y126.44 E11.21013
G1 X155.627 Y124.734 E11.2346
G1 X155.14 Y123.191 E11.25489
G1 X154.851 Y121.568 E11.27557
G1 X154.976 Y118.994 E11.30788
G1 X155.592 Y116.97 E11.33441
G1 X156.219 Y115.674 E11.35247
G1 X157.314 Y114.144 E11.37606
G1 X158.351 Y113.092 E11.39459
G1 X159.822 Y112 E11.41756
G1 X161.374 Y111.189 E11.43952
G1 X162.751 Y110.33 E11.45987
G1 X163.702 Y110.108 E11.47212
G1 X166.304 Y110.108 E11.50475
G1 X167.394 Y110.387 E11.51886
G1 X168.035 Y110.728 E11.52796
G1 X168.485 Y111.17 E11.53587
G1 X169.671 Y111.698 E11.55216
G1 X170.678 Y112.344 E11.56716
G1 X171.958 Y113.352 E11.58759
G1 X173.321 Y114.923 E11.61367
G1 X174.169 Y116.409 E11.63513
G1 X174.655 Y117.654 E11.65189
G1 X175.029 Y119.261 E11.67258
G1 X175.16 Y121.36 E11.69895
G1 X174.802 Y123.388 E11.72478
G1 X174.312 Y124.818 E11.74373
G1 X173.517 Y126.305 E11.76488
G0 F9000 X173.197 Y126.064
G1 F1800 X172.445 Y127.063 E11.78056
G1 X170.942 Y128.576 E11.8073
G1 X169.487 Y129.449 E11.82858
G1 X167.92 Y130.166 E11.85019
G1 X166.301 Y130.504 E11.87093
G1 X165.205 Y130.61 E11.88474
G1 X164.036 Y130.567 E11.89941
G1 X162.317 Y130.233 E11.92137
G1 X160.538 Y129.464 E11.94568
G1 X159.029 Y128.566 E11.9677
G1 X157.783 Y127.337 E11.98964
G1 X156.924 Y126.246 E12.00706
G1 X155.995 Y124.573 E12.03105
G1 X155.534 Y123.121 E12.05016
G1 X155.253 Y121.544 E12.07025
G1 X155.374 Y119.062 E12.10141
G1 X155.953 Y117.143 E12.12654
G1 X156.545 Y115.906 E12.14374
G1 X157.6 Y114.424 E12.16656
G1 X158.59 Y113.413 E12.1843
